images/2017/06/logo-icon-1f16db4afeb7c700e3494a57e5a880984407bf1adaae1c0e31ae855a76279beb-1.svg

<svg xmlns="http://www.w3.org/2000/svg" preserveAspectRatio="xMidYMid" width="440" height="320"><path d="M33.39 29.66c-1.621.169-2.744-.073-4.237-.61l-1.231 2.651c-.276.335-.718.391-1.008.139-.449-.866-2.48-4.467-5.687-5.519.654 1.177 1.134 2.423 1.487 3.646a15.562 15.562 0 01-4.782 1.3C8.955 32.2 0 25.284 0 15.255 0 5.229 8.952-1.221 17.932.183a16.355 16.355 0 018.264 3.869C28.337 2.746 30.827 2.2 33.39 2.6 39.53 3.56 44 9.698 44 16.408S39.53 29.022 33.39 29.66zm0-23.301c-2.4-.289-4.669.575-6.379 2.249h-.009a.986.986 0 01-.799.29 1.216 1.216 0 01-.81-.44l-.025-.002a11.702 11.702 0 00-7.431-3.953c-6.557-.788-12.425 4.055-12.425 10.9 0 6.845 5.868 11.995 12.425 11.551a11.008 11.008 0 007.419-3.553h.005c.208-.257.508-.428.842-.44.347-.013.652.148.855.403 1.705 1.735 3.953 2.699 6.332 2.538 4.509-.306 7.886-4.578 7.886-9.565 0-4.987-3.377-9.437-7.886-9.978zm.001 12.404c-1.283-.001-2.346-1.206-2.346-2.692 0-1.486 1.063-2.635 2.346-2.569 1.252.064 2.246 1.268 2.246 2.689 0 1.422-.994 2.574-2.246 2.572zm-15.454-.013c-1.7-.002-3.113-1.391-3.113-3.104 0-1.712 1.413-3.027 3.113-2.94 1.653.085 2.959 1.472 2.959 3.099a2.938 2.938 0 01-2.959 2.945z" fill="#3962c9" fill-rule="evenodd"/></svg>

<svg xmlns="http://www.w3.org/2000/svg" xmlns:xlink="http://www.w3.org/1999/xlink" preserveAspectRatio="xMidYMid" width="440" height="320" viewBox="0 0 440 320">
  <defs>
    <style>
      .cls-1 {
        fill: #3962c9;
        fill-rule: evenodd;
      }
    </style>
  </defs>
  <path d="M33.390,29.660 C31.769,29.829 30.646,29.587 29.153,29.050 L27.922,31.701 C27.646,32.036 27.204,32.092 26.914,31.840 C26.465,30.974 24.434,27.373 21.227,26.321 C21.881,27.498 22.361,28.744 22.714,29.967 C21.252,30.624 19.653,31.088 17.932,31.267 C8.955,32.200 0.000,25.284 0.000,15.255 C0.000,5.229 8.952,-1.221 17.932,0.183 C21.143,0.685 23.969,2.100 26.196,4.052 C28.337,2.746 30.827,2.200 33.390,2.600 C39.530,3.560 44.000,9.698 44.000,16.408 C44.000,23.118 39.530,29.022 33.390,29.660 ZM33.390,6.359 C30.990,6.070 28.721,6.934 27.011,8.608 L27.002,8.608 C26.800,8.812 26.518,8.926 26.203,8.898 C25.887,8.869 25.600,8.703 25.393,8.458 L25.368,8.456 C23.550,6.367 20.952,4.865 17.937,4.503 C11.380,3.715 5.512,8.558 5.512,15.403 C5.512,22.248 11.380,27.398 17.937,26.954 C20.946,26.750 23.540,25.389 25.356,23.401 L25.361,23.401 C25.569,23.144 25.869,22.973 26.203,22.961 C26.550,22.948 26.855,23.109 27.058,23.364 C28.763,25.099 31.011,26.063 33.390,25.902 C37.899,25.596 41.276,21.324 41.276,16.337 C41.276,11.350 37.899,6.900 33.390,6.359 ZM33.391,18.763 C32.108,18.762 31.045,17.557 31.045,16.071 C31.045,14.585 32.108,13.436 33.391,13.502 C34.643,13.566 35.637,14.770 35.637,16.191 C35.637,17.613 34.643,18.765 33.391,18.763 ZM17.937,18.750 C16.237,18.748 14.824,17.359 14.824,15.646 C14.824,13.934 16.237,12.619 17.937,12.706 C19.590,12.791 20.896,14.178 20.896,15.805 C20.896,17.433 19.590,18.751 17.937,18.750 Z" class="cls-1"/>
</svg>
